X:2037
L:1/8
Q:1/4=120
M:4/4
K:G
"^Slow" (G>A) | (B>A) (Bd){c} B2 (TA>G) | (d>B) (d>e) d2 g>f | (e>d) (ef/g/) (d>B) (TA>G) | 
 A6 G>A | (TB>A) (Bd){c} B2 (AG) | (d>B)(d>e) d2 (g>f) | (e>d)(eg) (g/a/b) (Ta>g) | g3 a g2 :: 
 (f>g) | (a>g)(a>b) a2 (ga) | b(a/g/) (f/g/)e ^d2 (ef) | (g>f)(g>a){Tg} f3 e | e3 f e2 (ef/g/) | 
 (d>B) (TA>G) (Bd) (e/f/g) | (d>B)(TA>G) E2 (b>a) | (g>f) (ef/g/) TA3 G | G3 A G2 :: Be/f/ | 
 (gf)(ga) g2 f2 |{ef} e4 z2 (e3/2f/4g/4) | d<BAG B<d e>g | d<BAG E2 b>a | g>f (e3/2f/4g/4) dG/A/4 | 
 G4 z2 :|

